assets/images/payments/directdebit.svg

<svg width="100" height="60" viewBox="0 0 100 60" version="1.1" xmlns="http://www.w3.org/2000/svg" xmlns:xlink="http://www.w3.org/1999/xlink"><title>DirectDebit-light</title><desc>Created with Sketch.</desc><g id="Light-Payment-badges" stroke="none" stroke-width="1" fill="none" fill-rule="evenodd" transform="translate(-130.000000, -889.000000)"><g id="DirectDebit-light" transform="translate(130.000000, 889.000000)"><rect id="Rectangle" fill="#FFF" x="0" y="0" width="100" height="60" rx="5"/><path d="M47.7912908,22.9632223 L51.6663087,22.9632223 C51.6663087,22.9632223 55.5022193,22.8856022 55.4635371,26.3844794 C55.424855,28.989019 51.743673,29.3779727 51.743673,29.3779727 L47.7912908,29.3779727 L47.7912908,22.9632223 L47.7912908,22.9632223 Z M59.3831883,35.5210525 C59.4915833,36.0302747 59.8584263,36.5906751 61.0818029,36.647824 C62.7094295,36.6866341 63.6395018,36.0643935 63.6395018,36.0643935 L63.6395018,37.2696381 C63.6395018,37.2696381 61.8567215,37.6974019 61.0044386,37.6974019 C60.1134736,37.6974019 57.4784104,37.502925 57.4784104,35.0536257 C57.4784104,33.0713267 59.6484374,32.4490861 60.887967,32.4490861 C63.057994,32.5267062 64.1041128,33.3041871 64.0654307,35.5201995 C64.0654307,35.5530388 60.4951943,35.5287292 59.3831883,35.5210525 L59.3831883,35.5210525 Z M59.3878641,34.5482418 L62.3604398,34.5482418 C62.3604398,34.5482418 62.3604398,33.4210438 60.9270743,33.4210438 C59.8482244,33.4210438 59.4954091,34.0044743 59.3878641,34.5482418 L59.3878641,34.5482418 Z M68.7927314,33.3310556 C69.222486,32.8632023 69.9446948,32.4878962 71.1565943,32.4878962 C73.5587143,32.4878962 73.9463861,34.5094317 73.907704,35.0536257 C73.8690218,35.5982461 73.6751859,37.6585918 70.8853941,37.6585918 C69.8320489,37.6585918 69.1872045,37.2977861 68.7927314,36.8495511 L68.7927314,37.502925 L66.8943297,37.502925 L66.8943297,30.5051707 L68.7927314,30.5051707 L68.7927314,33.3310556 L68.7927314,33.3310556 Z M70.4203579,36.5702039 C71.5438411,36.5309673 72.0475594,35.5594361 72.0475594,35.0928622 C72.0475594,34.6262884 71.7763591,33.6543307 70.3429936,33.6543307 C69.2301374,33.6543307 68.8917748,34.4974902 68.7927314,34.9099005 L68.7927314,35.4169903 C68.8900744,35.8366509 69.2309876,36.5702039 70.4203579,36.5702039 L70.4203579,36.5702039 Z M86.8109693,36.375727 L86.8496515,37.4641149 C86.8496515,37.4641149 85.9582614,37.6585918 85.3771787,37.6585918 C84.7960961,37.6585918 83.2845161,37.3084482 83.2845161,35.831533 L83.2845161,33.5762841 L81.6959968,33.5762841 L81.6959968,32.5655163 L83.2845161,32.5655163 L83.2845161,31.3606982 L85.222025,31.3606982 L85.222025,32.5655163 L86.8109693,32.5655163 L86.8109693,33.5762841 L85.222025,33.5762841 L85.222025,35.5201995 C85.222025,35.5201995 85.222025,36.4921572 85.9969435,36.4921572 C86.7718621,36.4921572 86.8109693,36.375727 86.8109693,36.375727 L86.8109693,36.375727 Z M80.9210782,24.0128002 L83.1684696,24.0128002 L83.1684696,29.4167827 L85.0672963,29.4167827 L85.0672963,24.0128002 L87.3533698,24.0128002 L87.3533698,22.8856022 L80.9210782,22.8856022 L80.9210782,24.0128002 L80.9210782,24.0128002 Z M80.1461597,24.2848972 L80.3786777,23.1576992 C80.3786777,23.1576992 79.4099233,22.7299354 77.7049324,22.7299354 C76.0386237,22.7299354 73.3653035,23.6630831 73.3653035,26.1900025 C73.3653035,28.6781119 76.1937775,29.5332129 77.9374505,29.5332129 C79.6811235,29.5332129 80.2622062,29.261116 80.2622062,29.261116 L80.0687953,28.0170613 C80.0687953,28.0170613 79.2934517,28.2503482 77.9761327,28.2503482 C76.6974958,28.2115381 75.3801768,27.2007703 75.3801768,26.0731458 C75.4188589,25.062378 76.5814493,23.93518 78.0926042,23.93518 C79.2547695,23.93518 80.1461597,24.2848972 80.1461597,24.2848972 L80.1461597,24.2848972 Z M63.0193119,22.9244123 C63.0193119,22.9244123 66.1967755,22.7687455 66.1967755,24.6350408 C66.1967755,26.2288126 64.3757381,26.3456693 64.3757381,26.3456693 C64.3757381,26.3456693 64.8790314,26.4232894 65.1119745,26.7730066 C65.3053854,27.0843401 66.5840222,29.4167827 66.5840222,29.4167827 L64.6469384,29.4167827 C64.6469384,29.4167827 64.3366309,29.027829 64.1819022,28.7557321 C64.0654307,28.4836351 63.7168661,27.900631 63.7168661,27.900631 C63.7168661,27.900631 63.4456659,26.9286733 62.5155936,26.9286733 C62.4922142,26.9286733 62.113044,26.9141729 61.8180393,26.9030843 L61.8180393,29.4167827 L59.9583198,29.4167827 L59.9583198,22.9244123 L63.0193119,22.9244123 L63.0193119,22.9244123 Z M61.8180393,25.8398589 L62.825476,25.8398589 C62.825476,25.8398589 64.2205844,25.7622388 64.2979487,24.9071378 C64.3366309,24.0904203 62.9419475,23.9739901 62.9419475,23.9739901 L61.8180393,23.9739901 L61.8180393,25.8398589 L61.8180393,25.8398589 Z M69.6067572,26.8506267 L72.7064314,26.8506267 L72.7064314,25.6458086 L69.6067572,25.6458086 L69.6067572,24.168467 L72.9776317,24.168467 L72.9776317,22.9244123 L67.7079304,22.9244123 L67.7079304,29.4167827 L73.0163138,29.4167827 L73.0163138,28.2503482 L69.6067572,28.2503482 L69.6067572,26.8506267 L69.6067572,26.8506267 Z M77.1625319,31.8268455 L79.0613587,31.8268455 L79.0613587,30.5051707 L77.1625319,30.5051707 L77.1625319,31.8268455 Z M77.1625319,37.502925 L79.0613587,37.502925 L79.0613587,32.5655163 L77.1625319,32.5655163 L77.1625319,37.502925 Z M56.4709738,29.4167827 L58.3311184,29.4167827 L58.3311184,22.9244123 L56.4709738,22.9244123 L56.4709738,29.4167827 Z M47.7912908,31.0493646 L51.6663087,31.0493646 C51.6663087,31.0493646 55.5022193,30.9717445 55.4635371,34.4706217 C55.424855,37.0751613 51.743673,37.4641149 51.743673,37.4641149 L47.7912908,37.4641149 L47.7912908,31.0493646 L47.7912908,31.0493646 Z M49.6896925,36.2588703 L50.9300723,36.2588703 C50.9300723,36.2588703 53.487346,36.10363 53.487346,34.1209045 C53.487346,32.138179 50.7749186,31.9437022 50.7749186,31.9437022 L49.6896925,31.9437022 L49.6896925,36.2588703 L49.6896925,36.2588703 Z M49.6896925,28.172728 L50.9300723,28.172728 C50.9300723,28.172728 53.487346,27.9782512 53.487346,26.0343358 C53.487346,24.0128002 50.7749186,23.8575599 50.7749186,23.8575599 L49.6896925,23.8575599 L49.6896925,28.172728 L49.6896925,28.172728 Z" id="Fill-2" fill="#141413"/><path d="M30.3932428,26.828023 L30.3932428,39.8357941 C30.3932428,39.8357941 22.8761502,38.4748827 22.8761502,33.3041871 C22.8761502,29.1805104 28.4408561,27.3632608 30.3932428,26.828023 L30.3932428,26.828023 Z M30.3932428,26.5853535 C25.8750808,26.257387 15.6302579,28.3821318 15.6302579,33.0320901 C15.6302579,36.0643935 21.0546878,40.4964183 29.8895245,40.613275 C30.238089,40.613275 40.2741983,40.2243213 40.1190445,29.4167827 C39.9889704,20.3394909 33.217466,18.7495575 31.0521148,18.4727692 L31.0521148,17.919619 C39.684614,18.4693573 46.4739718,23.67801 46.4739718,29.9997868 C46.4739718,36.6866341 38.8790898,42.1294267 29.5409599,42.1294267 C20.2024049,42.1294267 12.6466302,36.6866341 12.6466302,29.9997868 C12.6466302,23.3129394 20.2024049,17.8705733 29.5409599,17.8705733 C29.8266128,17.8705733 30.1109905,17.8752646 30.3932428,17.8859268 L30.3932428,26.5853535 L30.3932428,26.5853535 Z" id="Fill-3" fill="#141413"/></g></g></svg>

<svg width="100" height="60" xmlns="http://www.w3.org/2000/svg"><g fill="none" fill-rule="evenodd"><rect fill="#FFF" width="100" height="60" rx="5"/><path d="M47.791 22.963h3.875s3.836-.077 3.798 3.421c-.04 2.605-3.72 2.994-3.72 2.994H47.79v-6.415zm11.592 12.558c.109.51.475 1.07 1.699 1.127 1.627.039 2.558-.584 2.558-.584v1.206s-1.783.427-2.636.427c-.89 0-3.526-.194-3.526-2.643 0-1.983 2.17-2.605 3.41-2.605 2.17.078 3.216.855 3.177 3.071 0 .033-3.57.009-4.682.001zm.005-.973h2.972s0-1.127-1.433-1.127c-1.079 0-1.432.583-1.54 1.127zm9.405-1.217c.43-.468 1.152-.843 2.364-.843 2.402 0 2.79 2.021 2.75 2.566-.038.544-.232 2.605-3.022 2.605-1.053 0-1.698-.361-2.092-.81v.654h-1.899v-6.998h1.899v2.826zm1.627 3.24c1.124-.04 1.628-1.012 1.628-1.478 0-.467-.272-1.439-1.705-1.439-1.113 0-1.451.843-1.55 1.256v.507c.097.42.438 1.153 1.627 1.153zm16.391-.195l.039 1.088s-.892.195-1.473.195c-.58 0-2.092-.35-2.092-1.827v-2.256h-1.589v-1.01h1.589V31.36h1.937v1.205h1.589v1.01h-1.589v1.944s0 .972.775.972.814-.116.814-.116zm-5.89-12.363h2.247v5.404h1.9v-5.404h2.285v-1.127h-6.432v1.127zm-.775.272l.233-1.127s-.97-.428-2.674-.428c-1.666 0-4.34.933-4.34 3.46 0 2.488 2.829 3.343 4.572 3.343 1.744 0 2.325-.272 2.325-.272l-.193-1.244s-.776.233-2.093.233c-1.279-.038-2.596-1.05-2.596-2.177.039-1.01 1.201-2.138 2.713-2.138 1.162 0 2.053.35 2.053.35zm-17.127-1.36s3.178-.156 3.178 1.71c0 1.594-1.821 1.71-1.821 1.71s.503.078.736.428c.193.311 1.472 2.644 1.472 2.644h-1.937s-.31-.39-.465-.661c-.117-.272-.465-.855-.465-.855s-.271-.972-1.201-.972l-.698-.026v2.514h-1.86v-6.493h3.061zm-1.201 2.915h1.007s1.396-.078 1.473-.933c.039-.817-1.356-.933-1.356-.933h-1.124v1.866zm7.789 1.01h3.1v-1.204h-3.1v-1.478h3.37v-1.244h-5.27v6.493h5.31V28.25h-3.41v-1.4zm7.556 4.977h1.898v-1.322h-1.898v1.322zm0 5.676h1.898v-4.937h-1.898v4.937zM56.47 29.417h1.86v-6.493h-1.86v6.493zm-8.68 1.632h3.875s3.836-.077 3.798 3.422c-.04 2.604-3.72 2.993-3.72 2.993H47.79V31.05zm1.899 5.21h1.24s2.557-.155 2.557-2.138c0-1.983-2.712-2.177-2.712-2.177H49.69v4.315zm0-8.086h1.24s2.557-.195 2.557-2.139c0-2.021-2.712-2.176-2.712-2.176H49.69v4.315zm-19.296-1.345v13.008s-7.517-1.361-7.517-6.532c0-4.123 5.565-5.94 7.517-6.476zm0-.243c-4.518-.328-14.763 1.797-14.763 6.447 0 3.032 5.425 7.464 14.26 7.581.348 0 10.384-.389 10.229-11.196-.13-9.078-6.902-10.667-9.067-10.944v-.553c8.633.55 15.422 5.758 15.422 12.08 0 6.687-7.595 12.13-16.933 12.13-9.339 0-16.894-5.443-16.894-12.13 0-6.687 7.555-12.13 16.894-12.13.286 0 .57.005.852.016v8.7z" fill="#141413"/></g></svg>
